X: 32853
T: Port Seán Gabha
R: jig
M: 6/8
K: Gmajor
|:GEF G2A|Bee gfe|d2B AGA|BGE EBA|
GEF G2A|Bee gfe|d2B AGA|1 BGF GBA:|2 BGF G2B||
|:deB d2B|dee ede|fdB BAF|GED E2F|
GEF G2A|Bee gfe|d2B AGA|1 BGF G2B:|2 BGF GBA||

